!!!OTL: Pan hongjun
!!!ARE: Asia, China,ÿYunnan Dongchuan
!! II,44
!!!SCT: C1867
!!!YEM: Copyright 1995, estate of Helmut Schaffrath.
**kern
*ICvox
*Ivox
!! Mixed meters:  3/4; 2/4
*M3/4
*k[f#]
*G:
{8b
8dd
4a
8dd
8ee
=1
*M2/4
8gg
8ee
8.dd
16b
=2
*M3/4
8b
8dd
8a
8g
4a
=3
*M2/4
8b
8a
8.g
16e
=4
4d
4r}
=5
{8d
8g
8g
8a
=6
16a
16b
8g
4a
=7
*M3/4
8b
8dd
16a
16b
8g
4a
=8
*M2/4
16a
16b
8g
8.g
16e
=9
2d}
=10
*M3/4
{8b
8dd
4a
8dd
8ee
=11
*M2/4
8gg
8ee
4dd
=12
*M3/4
8dd
8dd
8a
8g
4a
=13
*M2/4
8g
8a
4g
=14
4.d
8r}
==
!!!AGN: Shange
!!!AMT: irregular
!!!AIN: vox
!!!EED: Helmut Schaffrath
!!!EEV: 1.0
*-
